astro/public/img/icons/native-mobile-app.svg

<?xml version="1.0" encoding="UTF-8"?>
<svg width="66px" height="66px" viewBox="0 0 66 66" version="1.1" xmlns="http://www.w3.org/2000/svg" xmlns:xlink="http://www.w3.org/1999/xlink">
    <title>native-mobile-app</title>
    <defs>
        <circle id="path-1" cx="30" cy="30" r="30"></circle>
        <filter x="-8.3%" y="-6.7%" width="116.7%" height="116.7%" filterUnits="objectBoundingBox" id="filter-2">
            <feMorphology radius="0.5" operator="dilate" in="SourceAlpha" result="shadowSpreadOuter1"></feMorphology>
            <feOffset dx="0" dy="1" in="shadowSpreadOuter1" result="shadowOffsetOuter1"></feOffset>
            <feGaussianBlur stdDeviation="1" in="shadowOffsetOuter1" result="shadowBlurOuter1"></feGaussianBlur>
            <feColorMatrix values="0 0 0 0 0   0 0 0 0 0   0 0 0 0 0  0 0 0 0.11324369 0" type="matrix" in="shadowBlurOuter1"></feColorMatrix>
        </filter>
        <linearGradient x1="31.1480456%" y1="0%" x2="68.8519544%" y2="100%" id="linearGradient-3">
            <stop stop-color="#6366F1" offset="0%"></stop>
            <stop stop-color="#000000" offset="100%"></stop>
        </linearGradient>
        <linearGradient x1="-9.32490321%" y1="-54.6501747%" x2="109.968071%" y2="153.723792%" id="linearGradient-4">
            <stop stop-color="#6366F1" offset="0%"></stop>
            <stop stop-color="#000000" offset="100%"></stop>
        </linearGradient>
    </defs>
    <g id="Docs" stroke="none" stroke-width="1" fill="none" fill-rule="evenodd">
        <g id="quickstart-secondary-page" transform="translate(-699.000000, -1681.000000)">
            <g id="native-mobile-app" transform="translate(702.000000, 1683.000000)">
                <g id="Oval-Copy-2">
                    <use fill="black" fill-opacity="1" filter="url(#filter-2)" xlink:href="#path-1"></use>
                    <use fill="#F1F5F9" fill-rule="evenodd" xlink:href="#path-1"></use>
                </g>
                <g id="smartphone" transform="translate(18.352941, 9.882353)" fill="url(#linearGradient-3)">
                    <path d="M19.9547511,0 C22.5787059,0 24.7058824,2.14452202 24.7058824,4.78991597 L24.7058824,35.4453782 C24.7058824,38.0907529 22.5787059,40.2352941 19.9547511,40.2352941 L4.75113122,40.2352941 C2.12715747,40.2352941 0,38.0907529 0,35.4453782 L0,4.78991597 C0,2.14452202 2.12715747,0 4.75113122,0 L19.9547511,0 Z M19.9547511,1.91596639 L19.004,1.915 L19.0045249,2.87394958 C19.0045249,4.46119361 17.728181,5.74789916 16.1538462,5.74789916 L8.5520362,5.74789916 C6.97764434,5.74789916 5.70135747,4.46119361 5.70135747,2.87394958 L5.701,1.915 L4.75113122,1.91596639 C3.17673937,1.91596639 1.90045249,3.20267193 1.90045249,4.78991597 L1.90045249,35.4453782 C1.90045249,37.0325647 3.17673937,38.3193277 4.75113122,38.3193277 L19.9547511,38.3193277 C21.529086,38.3193277 22.8054299,37.0325647 22.8054299,35.4453782 L22.8054299,4.78991597 C22.8054299,3.20267193 21.529086,1.91596639 19.9547511,1.91596639 Z M17.1040724,1.91596639 L7.60180995,1.91596639 L7.60180995,2.87394958 C7.60180995,3.40302454 8.02724525,3.83193277 8.5520362,3.83193277 L16.1538462,3.83193277 C16.6785611,3.83193277 17.1040724,3.40302454 17.1040724,2.87394958 L17.1040724,1.91596639 Z" id="Combined-Shape"></path>
                </g>
                <g id="Group-17" transform="translate(22.588235, 17.647059)" stroke-width="2">
                    <rect id="Rectangle" stroke="#CBD5E1" x="1" y="1" width="5.14352941" height="5.14352941" rx="1.8304"></rect>
                    <rect id="Rectangle-Copy-13" stroke="url(#linearGradient-4)" x="1" y="10.0917647" width="5.14352941" height="5.14352941" rx="1.8304"></rect>
                    <rect id="Rectangle-Copy-12" stroke="url(#linearGradient-4)" x="10.0917647" y="1" width="5.14352941" height="5.14352941" rx="1.8304"></rect>
                    <rect id="Rectangle-Copy-14" stroke="#CBD5E1" x="10.0917647" y="10.0917647" width="5.14352941" height="5.14352941" rx="1.8304"></rect>
                    <rect id="Rectangle" stroke="#CBD5E1" x="1" y="19.3529412" width="5.14352941" height="5.14352941" rx="1.8304"></rect>
                    <rect id="Rectangle-Copy-12" stroke="url(#linearGradient-4)" x="10.0917647" y="19.3529412" width="5.14352941" height="5.14352941" rx="1.8304"></rect>
                </g>
                <g id="Group-17-Copy" transform="translate(22.588235, 36.000000)"></g>
            </g>
        </g>
    </g>
</svg>

<svg xmlns="http://www.w3.org/2000/svg" xmlns:xlink="http://www.w3.org/1999/xlink" width="66" height="66"><defs><linearGradient id="c" x1="31.148%" x2="68.852%" y1="0%" y2="100%"><stop offset="0%" stop-color="#6366F1"/><stop offset="100%"/></linearGradient><linearGradient id="d" x1="-9.325%" x2="109.968%" y1="-54.65%" y2="153.724%"><stop offset="0%" stop-color="#6366F1"/><stop offset="100%"/></linearGradient><filter id="b" width="116.7%" height="116.7%" x="-8.3%" y="-6.7%" filterUnits="objectBoundingBox"><feMorphology in="SourceAlpha" operator="dilate" radius=".5" result="shadowSpreadOuter1"/><feOffset dy="1" in="shadowSpreadOuter1" result="shadowOffsetOuter1"/><feGaussianBlur in="shadowOffsetOuter1" result="shadowBlurOuter1" stdDeviation="1"/><feColorMatrix in="shadowBlurOuter1" values="0 0 0 0 0 0 0 0 0 0 0 0 0 0 0 0 0 0 0.11324369 0"/></filter><circle id="a" cx="30" cy="30" r="30"/></defs><g fill="none" fill-rule="evenodd"><g transform="translate(3 2)"><use xlink:href="#a" fill="#000" filter="url(#b)"/><use xlink:href="#a" fill="#F1F5F9"/></g><path fill="url(#c)" d="M19.955 0c2.624 0 4.75 2.145 4.75 4.79v30.655c0 2.646-2.126 4.79-4.75 4.79H4.75c-2.623 0-4.75-2.144-4.75-4.79V4.79C0 2.145 2.127 0 4.751 0h15.204Zm0 1.916-.951-.001v.959c0 1.587-1.276 2.874-2.85 2.874H8.552c-1.574 0-2.85-1.287-2.85-2.874L5.7 1.915l-.95.001c-1.574 0-2.85 1.287-2.85 2.874v30.655c0 1.588 1.276 2.874 2.85 2.874h15.204c1.574 0 2.85-1.286 2.85-2.874V4.79c0-1.587-1.276-2.874-2.85-2.874Zm-2.85 0H7.601v.958c0 .529.425.958.95.958h7.602c.525 0 .95-.429.95-.958v-.958Z" transform="translate(21.353 11.882)"/><g stroke-width="2" transform="translate(25.588 19.647)"><rect width="5.144" height="5.144" x="1" y="1" stroke="#CBD5E1" rx="1.83"/><rect width="5.144" height="5.144" x="1" y="10.092" stroke="url(#d)" rx="1.83"/><rect width="5.144" height="5.144" x="10.092" y="1" stroke="url(#d)" rx="1.83"/><rect width="5.144" height="5.144" x="10.092" y="10.092" stroke="#CBD5E1" rx="1.83"/><rect width="5.144" height="5.144" x="1" y="19.353" stroke="#CBD5E1" rx="1.83"/><rect width="5.144" height="5.144" x="10.092" y="19.353" stroke="url(#d)" rx="1.83"/></g></g></svg>
